static/assets/head_icons_png/man/bizi/1035930.svg

<svg xmlns="http://www.w3.org/2000/svg" width="8" height="11"><g transform="translate(3.9 5.25)"><radialGradient id="a" gradientUnits="userSpaceOnUse" gradientTransform="matrix(.0205 .00046 -.00072 .0132 0 -14.7)" spreadMethod="pad" cx="0" cy="0" r="819.2" fx="0" fy="0"><stop offset="0" stop-color="#fbbd9d"/><stop offset="1" stop-color="#fedec1"/></radialGradient><path d="M2.8-3.75l.7 1.2Q3.95-1.4 3.95 0L3.8 1.45q-.3 1.25-1 2.2L1.65 4.8 0 5.25l-1.35-.35-1.45-1.25q-.85-1.1-1.05-2.6L-3.9 0q0-1.3.4-2.35l.7-1.4.85-.85q.85-.65 1.95-.65t2 .7l.8.8" fill="url(#a)"/></g></svg>

<?xml version="1.0" encoding="utf-8"?>
<svg version="1.1" id="Layer_1"
xmlns="http://www.w3.org/2000/svg"
xmlns:xlink="http://www.w3.org/1999/xlink"
xmlns:author="http://www.sothink.com"
width="8px" height="11px"
xml:space="preserve">
<g id="494" transform="matrix(1, 0, 0, 1, 3.9, 5.25)">
<radialGradient
id="RadialGradID_4247" gradientUnits="userSpaceOnUse" gradientTransform="matrix(0.0205078, 0.000457764, -0.000717163, 0.0131989, 0, -14.7)" spreadMethod ="pad" cx="0" cy="0" r="819.2" fx="0" fy="0" >
<stop  offset="0"  style="stop-color:#FBBD9D;stop-opacity:1" />
<stop  offset="1"  style="stop-color:#FEDEC1;stop-opacity:1" />
</radialGradient>
<path style="fill:url(#RadialGradID_4247) " d="M2.8,-3.75L3.5 -2.55Q3.95 -1.4 3.95 0L3.8 1.45Q3.5 2.7 2.8 3.65L1.65 4.8L0 5.25L-1.35 4.9L-2.8 3.65Q-3.65 2.55 -3.85 1.05L-3.9 0Q-3.9 -1.3 -3.5 -2.35L-2.8 -3.75L-1.95 -4.6Q-1.1 -5.25 0 -5.25Q1.1 -5.25 2 -4.55L2.8 -3.75" />
</g>
</svg>
